pro/src/icons/stroke-accessibility-ear.svg

<svg width="48" height="48" viewBox="0 0 48 48" fill="none" xmlns="http://www.w3.org/2000/svg">
  <g id="icon" fill="currentColor">
    <path d="M23.4468 5.01543C28.4039 4.784 32.8903 7.17383 35.4188 10.9413L40.3053 6.24723C40.7034 5.86476 41.3369 5.87677 41.7202 6.27406C42.1035 6.67135 42.0915 7.30347 41.6933 7.68594L36.4279 12.7441C37.0744 14.1577 37.4684 15.7089 37.5514 17.3487C37.6971 20.2163 37.2872 22.4533 36.5363 24.2951C35.7865 26.1339 34.7192 27.523 33.6338 28.7138C33.1869 29.2041 32.7281 29.6699 32.292 30.1128L32.2852 30.1197C32.1991 30.2071 32.114 30.2936 32.0299 30.3792C31.5105 30.9084 31.029 31.4099 30.5954 31.9297C29.7377 32.958 29.0943 34.027 28.8091 35.3924C27.7334 40.5578 24.3946 43.0504 21.7318 42.9992L21.7288 42.9992C19.7889 42.9562 18.1204 42.3835 16.8895 41.5268C15.6806 40.6854 14.8063 39.4994 14.6769 38.2075C14.6219 37.6588 15.0231 37.1695 15.5731 37.1146C16.123 37.0597 16.6134 37.4601 16.6683 38.0088C16.7213 38.5368 17.1285 39.2583 18.0344 39.8888C18.918 40.5038 20.197 40.9674 21.7716 41.0026C23.1614 41.0283 25.8994 39.55 26.8497 34.9856C27.223 33.1979 28.0689 31.8369 29.0572 30.6521C29.5466 30.0654 30.0773 29.5145 30.6 28.9819C30.6912 28.889 30.782 28.7968 30.8724 28.7049C31.3079 28.2626 31.7348 27.8291 32.1533 27.37C33.1535 26.2726 34.0547 25.0822 34.6824 23.5425C35.3089 22.006 35.6855 20.0657 35.5526 17.4496C35.4956 16.3231 35.2624 15.2423 34.8792 14.2317L31.8414 17.1499C31.9522 17.7244 31.9971 18.3247 31.9803 18.9441C31.9104 21.5834 30.1756 23.4352 28.628 25.0872L28.436 25.2924C26.7647 27.0812 25.1999 28.8311 24.7537 31.4717C24.6618 32.0155 24.1456 32.382 23.6006 32.2904C23.0556 32.1987 22.6883 31.6835 22.7802 31.1397C23.337 27.844 25.3179 25.7012 26.972 23.9306C28.6896 22.0922 29.9091 20.7682 29.9781 18.9398L7.69471 40.3457C7.29656 40.7282 6.66307 40.7161 6.27978 40.3189C5.89648 39.9216 5.90852 39.2894 6.30667 38.907L30.0291 16.1187C30.0385 16.1093 30.0481 16.1001 30.0578 16.0911L33.9479 12.3543C31.8512 8.99342 27.9393 6.80493 23.5403 7.01031C20.6503 7.14508 18.067 8.29401 16.1396 10.074C15.734 10.4485 15.1008 10.4241 14.7255 10.0194C14.3501 9.61463 14.3746 8.98287 14.7802 8.60829C17.0469 6.51502 20.076 5.17262 23.4468 5.01543Z" />
    <path d="M27.9514 14.3716C27.7216 14.1869 27.4752 14.0178 27.2144 13.8651L22.8904 10.8934C25.2168 10.7865 27.502 11.446 29.2069 12.8163C29.6373 13.1623 29.7051 13.7909 29.3584 14.2203C29.0117 14.6498 28.3818 14.7175 27.9514 14.3716Z" />
    <path d="M16.4081 17.5306C16.6514 16.6661 17.1056 15.9183 17.6884 15.288C19.0311 13.8357 21.0964 12.9748 22.9823 12.8884C24.5461 12.8165 26.0291 13.1712 27.2144 13.8651L22.8904 10.8934C20.5315 11.0016 17.9519 12.0578 16.2174 13.9338C14.4378 15.8586 13.589 18.6113 14.727 21.891C14.9078 22.4121 15.4778 22.6882 16 22.5078C16.5223 22.3274 16.799 21.7586 16.6182 21.2375C16.4085 20.6332 16.2852 20.0608 16.2362 19.5205C17.1311 19.5974 18.0752 19.7021 18.9046 20.0424C19.7582 20.3926 20.4519 20.9761 20.7768 22.0984C20.9302 22.6282 21.485 22.9336 22.0159 22.7805C22.5469 22.6274 22.8529 22.0739 22.6995 21.5441C22.1735 19.7272 20.969 18.7301 19.6657 18.1954C18.5367 17.7321 17.3091 17.6066 16.4081 17.5306Z" />
  </g>
</svg>

<svg xmlns="http://www.w3.org/2000/svg" width="48" height="48" fill="none"><g id="icon" fill="currentColor"><path d="M23.447 5.015c4.957-.231 9.443 2.159 11.972 5.926l4.886-4.694a1 1 0 0 1 1.415.027.997.997 0 0 1-.027 1.412l-5.265 5.058a12.6 12.6 0 0 1 1.123 4.605c.146 2.867-.264 5.104-1.015 6.946-.75 1.839-1.817 3.228-2.902 4.419-.447.49-.906.956-1.342 1.399l-.007.007-.255.26c-.52.528-1.001 1.03-1.435 1.55-.857 1.028-1.5 2.097-1.786 3.462-1.076 5.166-4.414 7.658-7.077 7.607h-.003c-1.94-.043-3.609-.616-4.84-1.472-1.208-.842-2.083-2.028-2.212-3.32a1 1 0 0 1 1.991-.199c.053.529.46 1.25 1.366 1.88.884.616 2.163 1.08 3.738 1.115 1.39.025 4.127-1.453 5.078-6.017.373-1.788 1.219-3.15 2.207-4.334.49-.587 1.02-1.137 1.543-1.67l.272-.277c.436-.442.863-.876 1.281-1.335 1-1.097 1.902-2.288 2.53-3.828.626-1.536 1.002-3.476.87-6.092a10.6 10.6 0 0 0-.674-3.218l-3.038 2.918c.111.574.156 1.175.14 1.794-.07 2.64-1.805 4.491-3.353 6.143l-.192.205c-1.671 1.79-3.236 3.54-3.682 6.18a1 1 0 0 1-1.974-.332c.557-3.296 2.538-5.439 4.192-7.21 1.718-1.838 2.937-3.162 3.006-4.99L7.695 40.346a1 1 0 0 1-1.415-.027.997.997 0 0 1 .027-1.412l23.722-22.788.029-.028 3.89-3.737c-2.097-3.36-6.009-5.55-10.408-5.344-2.89.135-5.473 1.284-7.4 3.064a1 1 0 0 1-1.415-.055.997.997 0 0 1 .055-1.41c2.267-2.094 5.296-3.436 8.667-3.594"/><path d="M27.951 14.372a6 6 0 0 0-.737-.507l-4.324-2.972c2.327-.107 4.612.553 6.317 1.923.43.346.498.975.151 1.404-.346.43-.976.497-1.407.152"/><path d="M16.408 17.53a5.5 5.5 0 0 1 1.28-2.242c1.343-1.452 3.408-2.313 5.294-2.4 1.564-.072 3.047.283 4.232.977l-4.324-2.972c-2.358.109-4.938 1.165-6.673 3.04-1.78 1.926-2.628 4.678-1.49 7.958a1.001 1.001 0 0 0 1.891-.653 7.2 7.2 0 0 1-.382-1.718c.895.077 1.84.182 2.669.522.853.35 1.547.934 1.872 2.056a1.001 1.001 0 0 0 1.922-.554c-.526-1.817-1.73-2.814-3.033-3.349-1.13-.463-2.357-.588-3.258-.664"/></g></svg>
